svgs/sharp-solid/books.svg

<svg xmlns="http://www.w3.org/2000/svg" viewBox="0 0 512 512"><!--! Font Awesome Pro 6.6.0 by @fontawesome - https://fontawesome.com License - https://fontawesome.com/license (Commercial License) Copyright 2024 Fonticons, Inc. --><path d="M355.4 398.3L320 268.3l0-125.5 93.7-25.1 67.2 247L355.4 398.3zM405.3 86.8L320 109.6l0-93.4L381.7 0l23.6 86.8zM363.8 429.2l125.5-33.6L512 478.9 386.3 512l-22.5-82.8zM0 0L128 0l0 96L0 96 0 0zM0 128l128 0 0 256L0 384 0 128zM0 416l128 0 0 96L0 512l0-96zM160 0L288 0l0 96L160 96l0-96zm0 128l128 0 0 256-128 0 0-256zm0 288l128 0 0 96-128 0 0-96z"/></svg>

<svg xmlns="http://www.w3.org/2000/svg" viewBox="0 0 512 512"><!--! Font Awesome Pro 6.4.0 by @fontawesome - https://fontawesome.com License - https://fontawesome.com/license (Commercial License) Copyright 2023 Fonticons, Inc. --><path d="M355.4 398.3L320 268.3V142.8l93.7-25.1 67.2 247L355.4 398.3zM405.3 86.8L320 109.6V16.3L381.7 0l23.6 86.8zM363.8 429.2l125.5-33.6L512 478.9 386.3 512l-22.5-82.8zM0 0H128V96H0V0zM0 128H128V384H0V128zM0 416H128v96H0V416zM160 0H288V96H160V0zm0 128H288V384H160V128zm0 288H288v96H160V416z"/></svg>
